src/assets/icons/logo.svg

<?xml version="1.0" encoding="UTF-8"?>
<svg width="432px" height="324px" viewBox="0 0 432 324" version="1.1" xmlns="http://www.w3.org/2000/svg" xmlns:xlink="http://www.w3.org/1999/xlink">
    <title>Group</title>
    <defs>
        <path d="M48.966,0 L48.966,187 L88.473,187 C113.132,187 133.957,167.476 134.222,142.818 L134.222,142.818 C134.411,125.001 124.27,109.249 108.519,101.991 L108.519,101.991 C119.537,94.414 126.153,82.079 126.151,68.554 L126.151,68.554 C126.148,46.314 106.918,28.131 84.678,28.131 L84.678,28.131 L60.287,28.131 L60.287,11.321 L139.254,11.321 C162.19,11.321 181.753,29.113 182.628,52.031 L182.628,52.031 C183.551,76.13 164.197,96.043 140.299,96.043 L140.299,96.043 L138.653,96.043 L138.653,107.365 L144.501,107.365 C171.495,107.365 194.287,129.452 193.821,156.442 L193.821,156.442 C193.371,182.655 171.917,203.829 145.617,203.829 L145.617,203.829 L11.321,203.829 L11.321,39.473 L40.92,39.473 L40.92,28.131 L0,28.131 L0,215.151 L144.355,215.151 C176.093,215.151 203.196,190.817 205.047,159.135 L205.047,159.135 C206.582,132.887 190.924,109.363 167.15,100.251 L167.15,100.251 C183.82,90.476 194.187,72.624 193.979,53.1 L193.979,53.1 C193.66,23.491 168.766,0 139.154,0 L139.154,0 L48.966,0 Z M60.287,39.473 L85.724,39.473 C101.767,39.473 114.811,52.516 114.811,68.561 L114.811,68.561 C114.811,84.606 101.767,97.668 85.724,97.668 L85.724,97.668 L78.891,97.668 L78.891,108.99 L89.566,108.99 C107.947,108.99 122.901,123.945 122.901,142.325 L122.901,142.325 C122.901,160.722 107.947,175.678 89.566,175.678 L89.566,175.678 L60.287,175.678 L60.287,39.473 Z" id="path-1"></path>
        <linearGradient x1="-0.000124103947%" y1="49.9998179%" x2="100.000001%" y2="49.9998179%" id="linearGradient-3">
            <stop stop-color="#91774F" offset="0%"></stop>
            <stop stop-color="#F2CC80" offset="100%"></stop>
        </linearGradient>
    </defs>
    <g id="La-Nina" stroke="none" stroke-width="1" fill="none" fill-rule="evenodd">
        <g id="Group" transform="translate(0.000300, 0.242000)">
            <g id="Group-4" transform="translate(115.032700, 0.000000)">
                <mask id="mask-2" fill="white">
                    <use xlink:href="#path-1"></use>
                </mask>
                <g id="Clip-3"></g>
                <path d="M48.966,0 L48.966,187 L88.473,187 C113.132,187 133.957,167.476 134.222,142.818 L134.222,142.818 C134.411,125.001 124.27,109.249 108.519,101.991 L108.519,101.991 C119.537,94.414 126.153,82.079 126.151,68.554 L126.151,68.554 C126.148,46.314 106.918,28.131 84.678,28.131 L84.678,28.131 L60.287,28.131 L60.287,11.321 L139.254,11.321 C162.19,11.321 181.753,29.113 182.628,52.031 L182.628,52.031 C183.551,76.13 164.197,96.043 140.299,96.043 L140.299,96.043 L138.653,96.043 L138.653,107.365 L144.501,107.365 C171.495,107.365 194.287,129.452 193.821,156.442 L193.821,156.442 C193.371,182.655 171.917,203.829 145.617,203.829 L145.617,203.829 L11.321,203.829 L11.321,39.473 L40.92,39.473 L40.92,28.131 L0,28.131 L0,215.151 L144.355,215.151 C176.093,215.151 203.196,190.817 205.047,159.135 L205.047,159.135 C206.582,132.887 190.924,109.363 167.15,100.251 L167.15,100.251 C183.82,90.476 194.187,72.624 193.979,53.1 L193.979,53.1 C193.66,23.491 168.766,0 139.154,0 L139.154,0 L48.966,0 Z M60.287,39.473 L85.724,39.473 C101.767,39.473 114.811,52.516 114.811,68.561 L114.811,68.561 C114.811,84.606 101.767,97.668 85.724,97.668 L85.724,97.668 L78.891,97.668 L78.891,108.99 L89.566,108.99 C107.947,108.99 122.901,123.945 122.901,142.325 L122.901,142.325 C122.901,160.722 107.947,175.678 89.566,175.678 L89.566,175.678 L60.287,175.678 L60.287,39.473 Z" id="Fill-2" fill="url(#linearGradient-3)" mask="url(#mask-2)"></path>
            </g>
            <g id="Group-18" transform="translate(0.000000, 272.350411)" fill="#F1E7D7">
                <path d="M26.342,22.1565894 L8.371,22.1565894 L8.371,9.13058942 L26.785,9.13058942 C27.717,9.13058942 28.699,9.22758942 29.701,9.41558942 C30.585,9.58358942 31.376,9.88958942 32.056,10.3275894 C32.686,10.7315894 33.198,11.3025894 33.621,12.0695894 C34.037,12.8255894 34.248,13.8795894 34.248,15.2015894 C34.248,16.6545894 34.039,17.8425894 33.627,18.7315894 C33.23,19.5875894 32.721,20.2315894 32.069,20.7005894 C31.357,21.2145894 30.549,21.5725894 29.598,21.7935894 C28.557,22.0335894 27.462,22.1565894 26.342,22.1565894 M43.035,46.2335894 C42.864,45.5705894 42.718,44.8015894 42.602,43.9455894 C42.482,43.0575894 42.391,42.1525894 42.33,41.2255894 L42.175,38.7295894 C42.086,36.7965894 41.906,35.0565894 41.642,33.5545894 C41.354,31.9235894 40.859,30.4715894 40.168,29.2385894 C39.431,27.9265894 38.419,26.8575894 37.16,26.0625894 C38.437,25.2165894 39.519,24.2165894 40.375,23.0915894 C41.236,21.9595894 41.896,20.7005894 42.338,19.3515894 C42.777,18.0105894 42.999,16.6155894 42.999,15.2015894 C42.999,12.5575894 42.528,10.2855894 41.597,8.44858942 C40.657,6.59358942 39.354,5.09258942 37.725,3.98858942 C36.159,2.93058942 34.356,2.17758942 32.363,1.75058942 C30.468,1.34458942 28.486,1.13858942 26.469,1.13858942 L0,1.13858942 L0,50.0265894 L8.371,50.0265894 L8.371,30.1485894 L24.696,30.1485894 C26.467,30.1485894 27.968,30.3085894 29.161,30.6255894 C30.211,30.9035894 31.077,31.3545894 31.733,31.9655894 C32.385,32.5715894 32.861,33.3835894 33.189,34.4485894 C33.559,35.6525894 33.766,37.1765894 33.804,38.9695894 C33.847,41.5445894 33.957,43.6775894 34.131,45.3065894 C34.349,47.3625894 34.768,48.6325894 35.486,49.4225894 L36.035,50.0265894 L46.435,50.1065894 L43.288,46.9595894 C43.283,46.9525894 43.176,46.7815894 43.035,46.2335894" id="Fill-5"></path>
                <polygon id="Fill-7" points="61.6096 28.7552894 91.7426 28.7552894 91.7426 20.7652894 61.6096 20.7652894 61.6096 9.13028942 92.8826 9.13028942 92.8826 1.13928942 53.2376 1.13928942 53.2376 50.0262894 93.3886 50.0262894 93.3886 42.0342894 61.6096 42.0342894"></polygon>
                <path d="M136.4118,24.8933894 C134.7328,23.9513894 132.8108,23.2083894 130.6978,22.6853894 C128.6898,22.1893894 126.6078,21.7653894 124.4898,21.4183894 C121.7998,21.0053894 119.4148,20.5653894 117.3978,20.1133894 C115.4678,19.6793894 113.8638,19.1613894 112.6268,18.5693894 C111.5458,18.0543894 110.7408,17.4333894 110.2298,16.7223894 C109.7598,16.0653894 109.5318,15.2173894 109.5318,14.1253894 C109.5318,13.2193894 109.7528,12.4433894 110.2078,11.7533894 C110.7108,10.9913894 111.3938,10.3603894 112.2998,9.82438942 C113.2688,9.24938942 114.4548,8.79738942 115.8208,8.48338942 C118.6978,7.82638942 122.3098,7.86438942 125.3408,8.40738942 C126.7658,8.66338942 128.0328,9.10938942 129.1038,9.73338942 C130.1328,10.3353894 130.9588,11.1203894 131.6298,12.1353894 C132.2778,13.1143894 132.6778,14.4343894 132.8198,16.0573894 L132.9658,17.7403894 L141.2438,17.7403894 L141.1828,15.8383894 C141.0878,12.8263894 140.4008,10.2543894 139.1398,8.19238942 C137.8898,6.15138942 136.2338,4.49638942 134.2198,3.27538942 C132.2808,2.09838942 130.0738,1.24338942 127.6578,0.734389416 C123.1138,-0.212610584 118.2198,-0.252610584 113.6108,0.704389416 C111.2858,1.18738942 109.1648,1.99738942 107.3098,3.11138942 C105.3728,4.27138942 103.7888,5.84238942 102.6028,7.78038942 C101.3928,9.75538942 100.7798,12.1663894 100.7798,14.9483894 C100.7798,19.2343894 102.4858,22.4853894 105.8498,24.6103894 C108.8998,26.5363894 113.1568,27.9063894 118.8488,28.7953894 C120.9108,29.1333894 122.9218,29.4693894 124.8778,29.8043894 C126.7028,30.1193894 128.3478,30.5643894 129.7648,31.1253894 C131.0358,31.6313894 132.0648,32.3053894 132.8228,33.1293894 C133.4538,33.8163894 133.7608,34.7643894 133.7608,36.0283894 C133.7608,37.4103894 133.4668,38.5373894 132.8848,39.3793894 C132.2508,40.2963894 131.4358,41.0033894 130.3908,41.5433894 C129.2578,42.1283894 127.9498,42.5463894 126.5018,42.7873894 C122.9958,43.3733894 119.2178,43.2593894 116.1188,42.6963894 C114.5128,42.4043894 113.1098,41.8773894 111.9498,41.1283894 C110.8178,40.3953894 109.9178,39.4233894 109.1948,38.1523894 C108.4648,36.8723894 107.9998,35.1663894 107.8148,33.0793894 L107.6648,31.3993894 L99.3448,31.3993894 L99.4528,33.3453894 C99.6358,36.6353894 100.3338,39.4553894 101.5298,41.7293894 C102.7388,44.0303894 104.3918,45.9223894 106.4428,47.3523894 C108.4498,48.7523894 110.8128,49.7543894 113.4688,50.3313894 C116.0148,50.8853894 118.8198,51.1663894 121.8048,51.1663894 C124.0968,51.1663894 126.4478,50.9423894 128.7948,50.4993894 C131.2368,50.0383894 133.4828,49.2063894 135.4698,48.0273894 C137.5308,46.8043894 139.2308,45.1413894 140.5208,43.0853894 C141.8428,40.9823894 142.5128,38.3313894 142.5128,35.2063894 C142.5128,32.6863894 141.9258,30.5473894 140.7678,28.8483894 C139.6608,27.2263894 138.1958,25.8953894 136.4118,24.8933894" id="Fill-9"></path>
                <polygon id="Fill-11" points="151.2967 50.0265894 159.6687 50.0265894 159.6687 1.13858942 151.2967 1.13858942"></polygon>
                <path d="M179.5446,9.13068942 L194.7936,9.13068942 C199.4706,9.13068942 202.7536,10.4216894 204.8306,13.0776894 C206.9866,15.8336894 208.0796,20.0416894 208.0796,25.5826894 C208.0796,28.8196894 207.6986,31.5426894 206.9486,33.6756894 C206.2196,35.7536894 205.2526,37.4226894 204.0736,38.6376894 C202.9006,39.8466894 201.5686,40.6886894 200.0026,41.2106894 C198.3636,41.7566894 196.6116,42.0346894 194.7936,42.0346894 L179.5446,42.0346894 L179.5446,9.13068942 Z M194.9826,1.13868942 L171.1726,1.13868942 L171.1726,50.0266894 L195.6796,50.0266894 C199.1096,50.0266894 202.1916,49.3796894 204.8376,48.1016894 C207.4806,46.8266894 209.7286,45.0476894 211.5186,42.8156894 C213.2866,40.6116894 214.6326,37.9826894 215.5196,35.0026894 C216.3896,32.0816894 216.8306,28.9116894 216.8306,25.5826894 C216.8306,18.0766894 214.9796,12.0856894 211.3306,7.77368942 C207.6016,3.37168942 202.1016,1.13868942 194.9826,1.13868942 L194.9826,1.13868942 Z" id="Fill-13"></path>
                <polygon id="Fill-14" points="235.885 28.7552894 266.018 28.7552894 266.018 20.7652894 235.885 20.7652894 235.885 9.13028942 267.157 9.13028942 267.157 1.13928942 227.513 1.13928942 227.513 50.0262894 267.663 50.0262894 267.663 42.0342894 235.885 42.0342894"></polygon>
                <polygon id="Fill-15" points="313.7976 36.5887894 284.7996 1.13878942 276.4476 1.13878942 276.4476 50.0267894 284.8196 50.0267894 284.8196 14.5537894 314.0106 50.0267894 322.1696 50.0267894 322.1696 1.13878942 313.7976 1.13878942"></polygon>
                <path d="M373.3298,30.6433894 C372.9828,32.6053894 372.4038,34.3913894 371.6048,35.9483894 C370.8348,37.4523894 369.8138,38.7533894 368.5688,39.8163894 C367.3248,40.8773894 365.7898,41.7063894 364.0078,42.2823894 C362.1728,42.8743894 359.9778,43.1743894 357.4838,43.1743894 C354.3428,43.1743894 351.6568,42.6843894 349.5008,41.7203894 C347.3618,40.7623894 345.6028,39.4723894 344.2728,37.8823894 C342.9228,36.2703894 341.9238,34.4033894 341.3028,32.3343894 C340.6608,30.1953894 340.3358,27.9233894 340.3358,25.5823894 C340.3358,22.5323894 340.7638,19.8673894 341.6068,17.6643894 C342.4338,15.4993894 343.5988,13.6773894 345.0648,12.2483894 C346.5228,10.8273894 348.3098,9.75738942 350.3748,9.06838942 C354.0868,7.83538942 358.7648,7.64038942 363.0238,8.61138942 C364.7478,9.00438942 366.3218,9.64738942 367.6998,10.5203894 C369.0518,11.3813894 370.2098,12.4833894 371.1408,13.7973894 C372.0438,15.0743894 372.6518,16.6643894 372.9448,18.5253894 L373.1888,20.0823894 L381.5168,20.0823894 L381.2818,18.0293894 C380.9108,14.7893894 379.9248,11.9683894 378.3508,9.64238942 C376.8008,7.35238942 374.8748,5.46338942 372.6238,4.02438942 C370.4108,2.61038942 367.9418,1.57238942 365.2878,0.937389416 C359.5468,-0.435610584 353.5798,-0.237610584 349.0138,1.12238942 C346.5098,1.86438942 344.2668,2.89138942 342.3438,4.17038942 C340.4238,5.45238942 338.7538,6.96238942 337.3778,8.65938942 C336.0168,10.3363894 334.8888,12.1543894 334.0278,14.0613894 C333.1698,15.9553894 332.5398,17.9143894 332.1568,19.8803894 C331.7768,21.8223894 331.5838,23.7413894 331.5838,25.5823894 C331.5838,29.4223894 332.1888,32.9553894 333.3828,36.0833894 C334.5888,39.2503894 336.3528,41.9863894 338.6268,44.2143894 C340.8908,46.4323894 343.6628,48.1663894 346.8648,49.3703894 C350.0358,50.5623894 353.6078,51.1663894 357.4838,51.1663894 C360.9338,51.1663894 364.1198,50.6373894 366.9508,49.5963894 C369.7808,48.5543894 372.2708,47.1233894 374.3508,45.3413894 C376.4478,43.5443894 378.1418,41.3943894 379.3838,38.9543894 C380.6218,36.5223894 381.3898,33.8963894 381.6648,31.1473894 L381.8668,29.1203894 L373.5988,29.1203894 L373.3298,30.6433894 Z" id="Fill-16"></path>
                <polygon id="Fill-17" points="400.2214 42.0345894 400.2214 28.7555894 430.3544 28.7555894 430.3544 20.7645894 400.2214 20.7645894 400.2214 9.13058942 431.4934 9.13058942 431.4934 1.13858942 391.8494 1.13858942 391.8494 50.0265894 431.9994 50.0265894 431.9994 42.0345894"></polygon>
            </g>
        </g>
    </g>
</svg>

<svg height="326" viewBox="0 0 432 326" width="432" xmlns="http://www.w3.org/2000/svg" xmlns:xlink="http://www.w3.org/1999/xlink"><linearGradient id="a" x1="-.000124%" x2="100.000001%" y1="49.999818%" y2="49.999818%"><stop offset="0" stop-color="#91774f"/><stop offset="1" stop-color="#f2cc80"/></linearGradient><mask id="b" fill="#fff"><path d="m48.966 0v187h39.507c24.659 0 45.484-19.524 45.749-44.182.189-17.817-9.952-33.569-25.703-40.827 11.018-7.577 17.634-19.912 17.632-33.437-.003-22.24-19.233-40.423-41.473-40.423h-24.391v-16.81h78.967c22.936 0 42.499 17.792 43.374 40.71.923 24.099-18.431 44.012-42.329 44.012h-1.646v11.322h5.848c26.994 0 49.786 22.087 49.32 49.077-.45 26.213-21.904 47.387-48.204 47.387h-134.296v-164.356h29.599v-11.342h-40.92v187.02h144.355c31.738 0 58.841-24.334 60.692-56.016 1.535-26.248-14.123-49.772-37.897-58.884 16.67-9.775 27.037-27.627 26.829-47.151-.319-29.609-25.213-53.1-54.825-53.1zm11.321 39.473h25.437c16.043 0 29.087 13.043 29.087 29.088s-13.044 29.107-29.087 29.107h-6.833v11.322h10.675c18.381 0 33.335 14.955 33.335 33.335 0 18.397-14.954 33.353-33.335 33.353h-29.279z" fill="#fff" fill-rule="evenodd"/></mask><g fill="none" fill-rule="evenodd"><g fill="#f1e7d7" transform="translate(.0003 274.592411)"><path d="m26.342 22.1565894h-17.971v-13.02599998h18.414c.932 0 1.914.097 2.916.285.884.168 1.675.474 2.355.91199998.63.404 1.142.975 1.565 1.742.416.756.627 1.81.627 3.132 0 1.453-.209 2.641-.621 3.53-.397.856-.906 1.5-1.558 1.969-.712.514-1.52.872-2.471 1.093-1.041.24-2.136.363-3.256.363m16.693 24.077c-.171-.663-.317-1.432-.433-2.288-.12-.888-.211-1.793-.272-2.72l-.155-2.496c-.089-1.933-.269-3.673-.533-5.175-.288-1.631-.783-3.083-1.474-4.316-.737-1.312-1.749-2.381-3.008-3.176 1.277-.846 2.359-1.846 3.215-2.971.861-1.132 1.521-2.391 1.963-3.74.439-1.341.661-2.736.661-4.15 0-2.644-.471-4.916-1.402-6.75299998-.94-1.855-2.243-3.356-3.872-4.46-1.566-1.058-3.369-1.811-5.362-2.238-1.895-.406-3.877-.612-5.894-.612h-26.469v48.88799998h8.371v-19.878h16.325c1.771 0 3.272.16 4.465.477 1.05.278 1.916.729 2.572 1.34.652.606 1.128 1.418 1.456 2.483.37 1.204.577 2.728.615 4.521.043 2.575.153 4.708.327 6.337.218 2.056.637 3.326 1.355 4.116l.549.604 10.4.08-3.147-3.147c-.005-.007-.112-.178-.253-.726"/><path d="m61.6096 28.7552894h30.133v-7.99h-30.133v-11.63499998h31.273v-7.991h-39.645v48.88699998h40.151v-7.992h-31.779z"/><path d="m136.4118 24.8933894c-1.679-.942-3.601-1.685-5.714-2.208-2.008-.496-4.09-.92-6.208-1.267-2.69-.413-5.075-.853-7.092-1.305-1.93-.434-3.534-.952-4.771-1.544-1.081-.515-1.886-1.136-2.397-1.847-.47-.657-.698-1.505-.698-2.597 0-.906.221-1.682.676-2.372.503-.762 1.186-1.393 2.092-1.92899998.969-.575 2.155-1.027 3.521-1.341 2.877-.657 6.489-.619 9.52-.076 1.425.256 2.692.702 3.763 1.326 1.029.60199998 1.855 1.38699998 2.526 2.40199998.648.979 1.048 2.299 1.19 3.922l.146 1.683h8.278l-.061-1.902c-.095-3.012-.782-5.584-2.043-7.64599998-1.25-2.041-2.906-3.696-4.92-4.917-1.939-1.177-4.146-2.032-6.562-2.541-4.544-.947-9.438-.987-14.047-.03-2.325.483-4.446 1.293-6.301 2.407-1.937 1.16-3.521 2.731-4.707 4.669-1.21 1.975-1.823 4.38599998-1.823 7.16799998 0 4.286 1.706 7.537 5.07 9.662 3.05 1.926 7.307 3.296 12.999 4.185 2.062.338 4.073.674 6.029 1.009 1.825.315 3.47.76 4.887 1.321 1.271.506 2.3 1.18 3.058 2.004.631.687.938 1.635.938 2.899 0 1.382-.294 2.509-.876 3.351-.634.917-1.449 1.624-2.494 2.164-1.133.585-2.441 1.003-3.889 1.244-3.506.586-7.284.472-10.383-.091-1.606-.292-3.009-.819-4.169-1.568-1.132-.733-2.032-1.705-2.755-2.976-.73-1.28-1.195-2.986-1.38-5.073l-.15-1.68h-8.32l.108 1.946c.183 3.29.881 6.11 2.077 8.384 1.209 2.301 2.862 4.193 4.913 5.623 2.007 1.4 4.37 2.402 7.026 2.979 2.546.554 5.351.835 8.336.835 2.292 0 4.643-.224 6.99-.667 2.442-.461 4.688-1.293 6.675-2.472 2.061-1.223 3.761-2.886 5.051-4.942 1.322-2.103 1.992-4.754 1.992-7.879 0-2.52-.587-4.659-1.745-6.358-1.107-1.622-2.572-2.953-4.356-3.955"/><path d="m151.2967 50.0265894h8.372v-48.88799998h-8.372z"/><path d="m179.5446 9.13068942h15.249c4.677 0 7.96 1.29099998 10.037 3.94699998 2.156 2.756 3.249 6.964 3.249 12.505 0 3.237-.381 5.96-1.131 8.093-.729 2.078-1.696 3.747-2.875 4.962-1.173 1.209-2.505 2.051-4.071 2.573-1.639.546-3.391.824-5.209.824h-15.249zm15.438-7.992h-23.81v48.88799998h24.507c3.43 0 6.512-.647 9.158-1.925 2.643-1.275 4.891-3.054 6.681-5.286 1.768-2.204 3.114-4.833 4.001-7.813.87-2.921 1.311-6.091 1.311-9.42 0-7.506-1.851-13.497-5.5-17.80899998-3.729-4.402-9.229-6.635-16.348-6.635z"/><path d="m235.885 28.7552894h30.133v-7.99h-30.133v-11.63499998h31.272v-7.991h-39.644v48.88699998h40.15v-7.992h-31.778z"/><path d="m313.7976 36.5887894-28.998-35.44999998h-8.352v48.88799998h8.372v-35.473l29.191 35.473h8.159v-48.88799998h-8.372z"/><path d="m373.3298 30.6433894c-.347 1.962-.926 3.748-1.725 5.305-.77 1.504-1.791 2.805-3.036 3.868-1.244 1.061-2.779 1.89-4.561 2.466-1.835.592-4.03.892-6.524.892-3.141 0-5.827-.49-7.983-1.454-2.139-.958-3.898-2.248-5.228-3.838-1.35-1.612-2.349-3.479-2.97-5.548-.642-2.139-.967-4.411-.967-6.752 0-3.05.428-5.715 1.271-7.918.827-2.165 1.992-3.987 3.458-5.416 1.458-1.421 3.245-2.49099998 5.31-3.17999998 3.712-1.233 8.39-1.428 12.649-.457 1.724.393 3.298 1.036 4.676 1.90899998 1.352.861 2.51 1.963 3.441 3.277.903 1.277 1.511 2.867 1.804 4.728l.244 1.557h8.328l-.235-2.053c-.371-3.24-1.357-6.061-2.931-8.38699998-1.55-2.29-3.476-4.179-5.727-5.618-2.213-1.414-4.682-2.452-7.336-3.087-5.741-1.373-11.708-1.175-16.274.185-2.504.742-4.747 1.769-6.67 3.048-1.92 1.282-3.59 2.792-4.966 4.489-1.361 1.67699998-2.489 3.49499998-3.35 5.40199998-.858 1.894-1.488 3.853-1.871 5.819-.38 1.942-.573 3.861-.573 5.702 0 3.84.605 7.373 1.799 10.501 1.206 3.167 2.97 5.903 5.244 8.131 2.264 2.218 5.036 3.952 8.238 5.156 3.171 1.192 6.743 1.796 10.619 1.796 3.45 0 6.636-.529 9.467-1.57 2.83-1.042 5.32-2.473 7.4-4.255 2.097-1.797 3.791-3.947 5.033-6.387 1.238-2.432 2.006-5.058 2.281-7.807l.202-2.027h-8.268z"/><path d="m400.2214 42.0345894v-13.279h30.133v-7.991h-30.133v-11.63399998h31.272v-7.992h-39.644v48.88799998h40.15v-7.992z"/></g><path d="m48.966 0v187h39.507c24.659 0 45.484-19.524 45.749-44.182.189-17.817-9.952-33.569-25.703-40.827 11.018-7.577 17.634-19.912 17.632-33.437-.003-22.24-19.233-40.423-41.473-40.423h-24.391v-16.81h78.967c22.936 0 42.499 17.792 43.374 40.71.923 24.099-18.431 44.012-42.329 44.012h-1.646v11.322h5.848c26.994 0 49.786 22.087 49.32 49.077-.45 26.213-21.904 47.387-48.204 47.387h-134.296v-164.356h29.599v-11.342h-40.92v187.02h144.355c31.738 0 58.841-24.334 60.692-56.016 1.535-26.248-14.123-49.772-37.897-58.884 16.67-9.775 27.037-27.627 26.829-47.151-.319-29.609-25.213-53.1-54.825-53.1zm11.321 39.473h25.437c16.043 0 29.087 13.043 29.087 29.088s-13.044 29.107-29.087 29.107h-6.833v11.322h10.675c18.381 0 33.335 14.955 33.335 33.335 0 18.397-14.954 33.353-33.335 33.353h-29.279z" fill="url(#a)" mask="url(#b)" transform="translate(113.033 .242)"/></g></svg>
